X: 1
T:OH! CHRISTMAS TREE  "DC.al Fine"
M:3/4
L:1/8
Q:80
C:
S:
K:HP
A2|
{Gdc}d3/2{g}d/2{e}d2e2|
{g}f3/2{g}f/2{g}f2{g}f2|
e3/2f/2g2c2|  !
e3/2d/2{g}d2:|
a2|
{ag}a3/2f/2B2a2|
{ag}a3/2g/2{a}g2{a}g2|  !
{a}ge/2a2g2|
{a}g3/2f/2{g}f2|
